X:18444
T:Waltz,A. HSJJ.180
M:3/8
L:1/16
Q:50
S:HSJ Jackson,Wyresdale,Lancs.1823
R:Waltz
O:England
A:Lancashire
H:1823
Z:Chris Partington.
K:C
"key sig. D in MS"G2|cBcdef|g2g2g2|a2a2a2|g4g2|agf2f2|gfe2e2|d2dcde|c4:|
